X:73
T:Cylph Dance,The. JMT.073
T:Sylph,The,aka. JMT.073
T:Plymouth Lasses,aka. JMT.073
M:6/8
L:1/8
Q:3/8=110
S:J.Moore,Tyneside,1841.(51a)
R:.Jig
O:England
A:Tyneside
N:a.k.a. The Selph,Self,et
Z:vmp.Chris Partington
K:D
A|AFA d(fa)|(ag)fe2g|(fe)d (fe)d|(ce)e”NB”e2A|!
AFA dfa|agf efa|(f/g/)ad gec|dddd2:|!
|:A/G/|(FA).d (dc).B|(BA).G (GF)D|(F/G/A)G F/G/AD|CEEE2A/G/|!
FAd dcB|BAGF2D|(F/G/A)D GEC|EDDD2:|
W:NB=Crotchet E missing from MS

